new/InputPrompts/xbox_lt.svg

<?xml version="1.0" encoding="UTF-8" standalone="no"?>
<svg
   width="80"
   height="73.333"
   version="1.1"
   id="svg3769"
   sodipodi:docname="xbox_lt.svg"
   inkscape:version="1.2.2 (732a01da63, 2022-12-09)"
   xmlns:inkscape="http://www.inkscape.org/namespaces/inkscape"
   xmlns:sodipodi="http://sodipodi.sourceforge.net/DTD/sodipodi-0.dtd"
   xmlns="http://www.w3.org/2000/svg"
   xmlns:svg="http://www.w3.org/2000/svg">
  <sodipodi:namedview
     id="namedview3771"
     pagecolor="#ffffff"
     bordercolor="#000000"
     borderopacity="0.25"
     inkscape:showpageshadow="2"
     inkscape:pageopacity="0.0"
     inkscape:pagecheckerboard="0"
     inkscape:deskcolor="#d1d1d1"
     showgrid="false"
     inkscape:zoom="4.4967572"
     inkscape:cx="-1.5566773"
     inkscape:cy="33.468563"
     inkscape:window-width="1920"
     inkscape:window-height="1001"
     inkscape:window-x="-9"
     inkscape:window-y="-9"
     inkscape:window-maximized="1"
     inkscape:current-layer="svg3769" />
  <defs
     id="defs3763" />
  <g
     id="g3767"
     transform="matrix(1.6666667,0,0,1.6666667,-13.333334,-16.666667)">
    <path
       stroke="none"
       fill="#FFFFFF"
       d="m 37,36 h 4 V 23 h 5 V 19 H 32 v 4 h 5 V 36 M 18,19 V 36 H 30 V 32 H 22 V 19 H 18 M 15.7,54 Q 8,53.85 8,46 V 18 q 0,-8 8,-8 h 32 q 8,0 8,8 V 31.05 Q 55.65,40.3 48.95,47 q -6.8,6.8 -16.3,7 H 15.7"
       id="path3765"
       style="fill:#a747eb;fill-opacity:1" />
  </g>
</svg>

<svg width="64" height="64" xmlns="http://www.w3.org/2000/svg" xmlns:xlink="http://www.w3.org/1999/xlink">
  <defs/>
  <g>
    <path stroke="none" fill="#FFFFFF" d="M37 36 L41 36 41 23 46 23 46 19 32 19 32 23 37 23 37 36 M18 19 L18 36 30 36 30 32 22 32 22 19 18 19 M15.7 54 Q8 53.85 8 46 L8 18 Q8 10 16 10 L48 10 Q56 10 56 18 L56 31.05 Q55.65 40.3 48.95 47 42.15 53.8 32.65 54 L15.7 54"/>
  </g>
</svg>
